!!!COM: Beethoven, Ludwig van
!!!CDT: 1770///-1827///
!!!OTL: Piano Sonata no. 13 in E-flat major
!!!OTP: quasi una fantasia
!!!OPS: 27
!!!ONM: 1
!!!OMV: 3
!!!OMD: Adagio con expressione
**kern	**kern	**dynam
*Ipiano	*Ipiano	*Ipiano
*staff2	*staff1	*staff1/2
*clefF4	*clefG2	*clefG2
*k[b-e-a-d-]	*k[b-e-a-d-]	*k[b-e-a-d-]
*A-:	*A-:	*A-:
*M3/4	*M3/4	*M3/4
*MM60	*MM60	*MM60
=1-	=1-	=1-
*^	*	*
2E-/ 2A-/	8AAA-\ 8AA-\L	2c/	p
.	8AAA-\ 8AA-\	.	.
.	8AAA-\ 8AA-\	.	.
.	8AAA-\ 8AA-\	.	.
4D-/ 4G/	8AAA-\ 8AA-\	(16c/LL	.
.	.	16B-/	.
.	8AAA-\ 8AA-\J	16A-/	.
.	.	32c/L	.
.	.	32B-/JJJ)	.
=2	=2	=2	=2
4.C/ 4.E-/	8AAA-\ 8AA-\L	4.A-/	<
.	8AAA-\ 8AA-\	.	.
.	8AAA-\ 8AA-\	.	.
8C/ 8E-/L	8AAA-\ 8AA-\	(8A-/L	.
8D-/ 8G/	8AAA-\ 8AA-\	8B-/	.
8E-/ 8G-/J	8AAA-\ 8AA-\J	8c/J)	.
=3	=3	=3	=3
*	*	*^	*
4F/ 4A-/	8AAA-\ 8AA-\L	4r	4d-/	.
.	8AAA-\ 8AA-\J	.	.	.
(16F/LL	8AA-\L	(16d-/LL	8A-\L	.
16En/	.	16c/	.	.
16F/	8AA-\	16d-/	8A-\	.
16C/JJ	.	16e-/JJ	.	.
16D-/LL	8AA-\	16f/LL	8A-\	.
16E-/	.	16gn/	.	.
16F/	8AA-\J	16a-/	8A-\J	.
16D-/JJ)	.	16f/JJ)	.	.
=4	=4	=4	=4	=4
(4BBn/	8AA-\L	(8.dn/L	4A-\	.
.	8AA-\J	.	.	.
.	.	32f/LL	.	.
.	.	32e-/JJJ	.	.
8C/)	8AA-\	8e-/)	8A-\	.
4.r	8C\ (8E-\L	(8A-/ 8e-/L	4.r	.
.	8BB-\ 8D-\ 8E-\	8G/ 8B-/ 8e-/	.	.
.	8AA-\ 8C\ 8E-\J)	8A-/) 8c/ 8e-/J	.	.
*	*	*v	*v	*
=5	=5	=5	=5
8BB-/ 8E-/L	8GG\L	4.d-/ 4.dd-/	.
8BB-/ 8E-/	8GG\	.	.
8BB-/ 8E-/	8GG\	.	.
8BB-/ 8E-/	8GG\	8d-/ 8dd-/	.
8C/ 8E-/	8AA-\	(16d-/ 16dd-/LL	.
.	.	16c/ 16cc/	.
8C/ 8E-/J	8AA-\J	16B-/ 16b-/	.
.	.	16A-/) 16a-/JJ	.
=6	=6	=6	=6
8E-/L	8D-\L	(8A-/ 8a-/	.
8E-/	8D-\	4G/) 4g/	.
8E-/	8D-\	.	.
8E-/	8D-\	8G/ 8g/	<
8E-/	8C\	(16A-/ 16a-/LL	.
.	.	16A-/ 16a-/	.
8E-/J	8C\J	16B-/ 16b-/	.
.	.	16c/) 16cc/JJ	.
*v	*v	*	*
=7	=7	=7
8GG\ 8E-\L	(8e-/ 8ee-/	.
8GG\ 8E-\	4d-/) 4dd-/	f
8GG\ 8E-\	.	.
8GG\ 8E-\	8b-\ 8dd-\	.
8AA-\ 8E-\	16b-\ (16dd-\LL	.
.	16a-\ 16cc\	.
8AA-\ 8E-\J	16g\ 16bn\	.
.	16a-\ 16cc\JJ)	.
=8	=8	=8
*^	*^	*
8E-/L	4.EE-\	4a-/ (4cc/	8r	p
8E-/	.	.	8dn\L	.
8E-/J	.	8g/ 8b-/)	&(8e-\J&)	.
(8B-\L	4.r	8r	4.r	pp
8An\	.	4r	.	.
8A-\J)	.	.	.	.
*v	*v	*	*	*
*	*v	*v	*
=9	=9	=9
8G\L	8r	.
8G\ 8B-\	4b-\ (4bb-\	.
8G\ 8B-\	.	.
8G\ 8B-\	4g\ 4gg\	.
8G\ 8B-\	.	.
8G\ 8B-\J	8e-\ 8ee-\)	.
=10	=10	=10
8F\ 8A-\ 8B-\L	4e-/ (4ee-/	<
8F\ 8A-\ 8B-\	.	.
8F\ 8A-\ 8B-\	8dn/ 8ddn/L	.
8G\ 8B-\	8en/ 8een/	.
8A-\ 8B-\ 8c\	8f/ 8ff/	.
8G\ 8B-\J	8e-/ 8ee-/J)	.
=11	=11	=11
8F\ 8A-\ 8B-\L	4e-/ 4ee-/	p
8F\ 8A-\ 8B-\	.	.
8F\ 8A-\ (8B-\	8dn/ (8ddn/L	<
8E-\ 8G\	8c/ 8cc/	.
8Dn\ 8F\	8B-/ 8b-/	.
8C\ 8E-\J)	8An/ 8an/J)	.
=12	=12	=12
*^	*^	*
4.r	8BBn\ 8F\L	4.dn/ 4.a-/	4.r	p
.	8BB\ 8F\	.	.	.
.	8BB\ 8F\J	.	.	.
4A-/	8BBBn\ (8BB\L	(4a-/	8d\ 8f\L	.
.	8CC\ 8C\)	.	8e-\	.
8G/	8CC\ 8C\J	8g/)	8e-\J	.
*v	*v	*	*	*
*	*v	*v	*
=13	=13	=13
16AAA-\ 16AA-\	16F/ 16c/ 16f/LK	.
16r	(8Bn/ 8bn/	.
8AA-'\ 8C'\ 8F'\L	.	.
.	8c/ 8cc/	.
8AA-'\ 8C'\ 8F'\	.	.
.	8en/ 8een/	.
8AA-'\ 8C'\ 8F'\	.	.
.	8f/ 8ff/	.
8AA-'\ 8C'\ 8F'\	.	.
.	8bn/ 8bbn/	.
8AA-'\ 8C'\ 8F'\J	.	.
.	[16cc/) [16ccc/Jk	.
=14	=14	=14
8AA-'\ 8E-'\ 8F'\L	16cc\] (16ccc\LK]	<
.	8ddn\ 8dddn\	.
8AA-'\ 8E-'\ 8F'\	.	.
.	8ee-\ 8eee-\	.
8AA-'\ 8C'\ 8F'\	.	.
.	8ff\ 8fff\	.
8AA-'\ 8C'\ 8F'\	.	.
.	8ee-\ 8eee-\	.
8AA-'\ 8E-'\ 8F'\	.	.
.	8dd\ 8ddd\	.
8AA-'\ 8E-'\ 8F'\J	.	.
.	16cc\ [16ccc\Jk	.
=15	=15	=15
8BB-'\ 8E-'\ 8G'\L	&(16ccc\LK]&)	>
.	8bn\ 8bbn\	.
8BB-'\ 8E-'\ 8G'\	.	.
.	8b-\ 8bb-\	.
8BB-'\ 8E-'\ 8G'\	.	.
.	8an\ 8aan\	.
8BB-'\ 8E-'\ 8G'\	.	.
.	8b-\ 8bb-\	.
8BB-'\ 8Dn'\ 8A-'\	.	.
.	8cc\ 8ccc\	.
8BB-'\ 8D'\ 8A-'\J	.	.
.	16b-\ [16bb-\Jk	.
=16	=16	=16
8E-'\ 8G'\L	16bb-\LK]	.
.	8a-\ 8aa-\	.
8E-'\ 8G'\	.	.
.	8g\ 8gg\	pp
8E-'\ 8G'\	.	.
.	8f\ 8ff\	.
8E-'\ 8G'\	.	.
.	8e-\ 8ee-\	.
8E-'\ 8F'\ 8A-'\	.	.
.	8dn\ 8ddn\	.
8E-'\ 8G'\ 8B-'\J	.	.
.	16d\ 16dd-\Jk)	.
=17	=17	=17
*	*^	*
8AA-\ 8E-\ 8A-\L	2cc/	16c\LL	.
.	.	16e-\	.
8AA-\ 8E-\ 8A-\	.	16a-\	.
.	.	16e-\JJ	.
8AA-\ 8E-\ 8A-\	.	16c\LL	.
.	.	16e-\	.
8AA-\ 8E-\ 8A-\	.	16a-\	.
.	.	16e-\JJ	.
8AA-\ 8D-\ 8E-\ 8G\	(16cc/LL	16d-\LL	.
.	16b-/	16g\	.
8AA-\ 8D-\ 8E-\ 8G\J	16a-/	16d-\	.
.	32cc/L	16g\JJ	.
.	32b-/JJJ)	.	.
=18	=18	=18	=18
8C\ 8E-\ 8A-\L	4.a-/	16c\LL	.
.	.	16e-\	.
8AA-\ 8C\ 8E-\ 8A-\	.	16c\	.
.	.	16e-\JJ	<
8AA-\ 8C\ 8E-\ 8A-\	.	16c\LL	.
.	.	16e-\	.
8AA-\ 8C\ 8E-\ 8A-\	(8a-/L	16c\	.
.	.	16e-\JJ	.
8AA-\ 8D-\ 8E-\ 8G\	8b-/	16d-\LL	.
.	.	16g\	.
8AA-\ 8E-\ 8G-\J	8cc/J)	16e-\	.
.	.	16g-\JJ	.
=19	=19	=19	=19
*^	*	*	*
8D-/ 8F/L	8AA-\L	4dd-/	16f\LL	.
.	.	.	16a-\	.
8F/ 8A-/J	8AA-\	.	16a-\	.
.	.	.	16a-\JJ	<
16F/ 16A-/LL	8AA-\	4r	(16d-'/ 16a-'/ 16dd-'/LL	.
16En/ 16A-/	.	.	16c'/ 16a-'/ 16cc'/	.
16F/ 16A-/	8AA-\	.	16d-'/ 16a-'/ 16dd-'/	.
16C/ 16A-/JJ	.	.	16e-'/ 16a-'/ 16ee-'/JJ	.
16D-/ 16A-/LL	8AA-\	4r	16f'/ 16a-'/ 16ff'/LL	.
16E-/ 16A-/	.	.	16g'/ 16a-'/ 16gg'/	.
16F/ 16A-/	8AA-\J	.	16a-'/ 16aa-'/	.
16D-/ 16A-/JJ	.	.	16f'/) 16a-'/ 16ff'/JJ	.
=20	=20	=20	=20	=20
4BBn/	8AA-\ 8A-\L	(8.ddn/L	4dn\ 4a-\	.
.	8AA-\ 8A-\	.	.	.
.	.	32ff/LL	.	.
.	.	32ee-/JJJ)	.	.
8C/	8AA-\ 8A-\J	8ee-/L	8e-\ 8a-\	.
8c\ (8e-\L	4.r	(8ee-/	8a-\L	<
8B-\ 8d-\ 8e-\	.	8ee-/	8g\ 8b-\	.
8A-\ 8c\ 8e-\J)	.	8ee-/J)	&(8a-\&) 8cc\J	.
*v	*v	*	*	*
*	*v	*v	*
=21	=21	=21
8G\ 8B-\ 8e-\L	4.dd-\ 4.ddd-\	.
8G\ 8B-\ 8e-\	.	.
8G\ 8B-\ 8e-\	.	.
8G\ 8B-\ 8e-\	8dd-\ 8ddd-\	.
8A-\ 8c\ 8e-\	16dd-\ (16ddd-\LL	.
.	16cc\ 16ccc\	.
8A-\ 8c\ 8e-\J	16b-\ 16bb-\	.
.	16a-\ 16aa-\JJ)	.
=22	=22	=22
8d-\ 8e-\L	8a-\ (8aa-\	.
8d-\ 8e-\	4g\ 4gg\)	.
8d-\ 8e-\	.	.
8d-\ 8e-\J	8g\ 8gg\	.
8c\ 8e-\	16a-'\ 16aa-'\LL	.
.	16a-\ (16aa-\	.
*clefG2	*	*
8g-/ 8a-/	16b-\ 16bb-\	.
.	16cc\ 16ccc\JJ)	.
=23	=23	=23
8f/ 8a-/L	16dd-\ 16ddd-\LL	.
.	16dd-\ (16ddd-\	.
8d-/ 8a-/ 8dd-/	16ee-\ 16eee-\	.
.	16ff\ 16fff\JJ)	.
8e-/ 8a-/ 8cc/J	16ff\ (16fff\LL	.
.	16ee-\ 16eee-\	.
*clefF4	*	*
8E-\ 8A-\ (8c\L	16ddn\ 16dddn\	.
.	[16ee-\ [16eee-\JJ)	.
8E-\ 8G\ 8d-\	16ee-\] 16eee-\LL]	.
.	16ee-\ (16eee-\	.
8E-\ 8G\ 8B-\ 8d-\J)	16dd\ 16ddd\)	.
.	[16ee-\ [16eee-\JJ	.
=24	=24	=24
*^	*	*
8A-\ 8c\	2r	16ee-\] (16eee-\LL]	.
.	.	16a-\ 16aa-\JJ)	.
8AA-/ 8C/L	.	8r	.
(8AA-/ 8C/	.	4r	.
8GG/ 8BB-/J	.	.	.
128r	8FF\ 8AA-\L	8r	.
128BB-/LLLLL	.	.	.
128AA-/	.	.	.
128GG	.	.	.
128AA-/	.	.	.
128BB-/	.	.	.
128C/	.	.	.
128Dn/	.	.	.
128E-/	.	.	.
128FF/	.	.	.
128G/	.	.	.
128A-/	.	.	.
128B-/	.	.	.
128c/	.	.	.
128dn	.	.	.
128e-/JJJJJ	.	.	.
8r	8EE-\) 8GG\ 8C\J	88f\LLLL	.
.	.	88g\	.
.	.	88a-\	.
.	.	88b-\	.
.	.	88cc\	.
.	.	88ddn\	.
.	.	88ee-\	.
.	.	88ff\	.
.	.	88gg\	.
.	.	88aa-\	.
.	.	88gg\JJJJ	.
*v	*v	*	*
=25	=25	=25
2.DDn/ 2.FF/ 2.BB-/	(64gg\LLLL	<
.	64aa-\	.
.	64gg\	.
.	64aa-\	.
.	64gg\	.
.	64aa-\	.
.	64gg\	.
.	64aa-\	.
.	64gg\	.
.	64aa-\	.
.	64gg\	.
.	64aa-\	.
.	64gg\	.
.	64aa-\	.
.	64gg\	.
.	64aa-\JJJJ)	.
.	(64gg\LLLL	.
.	64aa-\	.
.	64gg\	.
.	64aa-\	.
.	64gg\	.
.	64aa-\	.
.	64gg\	.
.	64aa-\	.
.	64gg\	.
.	64aa-\	.
.	64gg\	.
.	64aa-\	.
.	64gg\	.
.	64aa-\	.
.	64gg\	.
.	64aa-\JJJJ)	.
.	(64gg\LLLL	.
.	64aa-\	.
.	64gg\	.
.	64aa-\	.
.	64gg\	.
.	64aa-\	.
.	64gg\	.
.	64aa-\	.
.	64gg\	.
.	64aa-\	.
.	64gg\	.
.	64aa-\	.
.	64gg\	.
.	64aa-\	.
.	64gg\	.
.	64aa-\JJJJ)	.
=26	=26	=26
2.Dn;\ 2.F;\ 2.B-;\	4aa-;\	.
.	ggq\LL	.
.	aa-q\	.
.	bb-q\	.
.	aa-q\	.
.	ggq\	.
.	ffq\	.
.	eenq\	.
.	ffq\	.
.	ggq\	.
.	ffq\	.
.	ee-q\	.
.	ddnq\	.
.	cc#q\	.
.	ddq\	.
.	ee-q\	.
.	ddq\	.
.	ccnq\	.
.	b-q\	.
.	anq\	.
.	b-q\	.
.	bnq\	.
.	ccq\	.
.	gq\JJ	.
.	(4b-'/	.
.	4an'/)	.
4r	4a-';/	pp
==	==	==
*-	*-	*-
!!!ENC: Craig Stuart Sapp
!!!END: 2008/11/04/
